!!!OTL: DEUTSCHLAND DEUTSCHLAND UEBER ALLES
!!!ARE: Europa, Mitteleuropa, Deutschland
!!!SCT: B0001A
!!!YEM: Copyright 1995, estate of Helmut Schaffrath.
**kern
*ICvox
*Ivox
*M2/4
*k[b-]
*F:
=1
{4.f
8g
=2
4a
4g
=3
4b-
4a
=4
8g
8e
4f}
=5
{4dd
4cc
=6
4b-
4a
=7
4g
8a
8f
=8
2cc}
=9
{4.f
8g
=10
4a
4g
=11
4b-
4a
=12
8g
8e
4f}
=13
{4dd
4cc
=14
4b-
4a
=15
4g
8a
8f
=16
2cc}
=17
{4g
4a
=18
8g
8e
4c
=19
4b-
4a
=20
8g
8e
4c}
=21
{4cc
4b-
=22
4.a
8a
=23
4bn
8bn
8cc
=24
2cc}
=25
{4.ff
8ee
=26
8ee
8dd
4cc
=27
4.dd
8cc
=28
8cc
8b-
4a}
=29
{4.g
16a
16b-
=30
8cc
8dd
8b-
8g
=31
4f
8a
8g
=32
2f}
=33
{4.ff
8ee
=34
8ee
8dd
4cc
=35
4.dd
8cc
=36
8cc
8b-
4a}
=37
{4.g
16a
16b-
=38
8cc
8dd
8b-
8g
=39
4f
8a
8g
=40
2f}
==
!!!AGN: Volks - Hymne, national, politisch, Vaterlands - Lied
!!!ONB: ESAC (Essen Associative Code) Database: BOEHME
!!!AMT: simple duple
!!!AIN: vox
!!!EED: Helmut Schaffrath
!!!EEV: 1.0
*-
